X: 41321
T: Turbulence
R: reel
M: 4/4
K: Eminor
e~B3 cBAc|BAGB AGFG|~E3F ~G3A|Begf edBd|
e~B3 cBAc|BAGB AGFG|~E3F ~G3A|1 Beed ~e3d:|2 Beed e2gf||
e~B3 eBgB|f~B3 fBaB|bBaB gBfB|~g3f edBd|
~e3d e~g3|~f3e f~a3|c'~b3 b~a3|agfd efgf:|

